src/shared/assets/dialog/dialog-message-voice-send.svg

<svg width="20" height="20" viewBox="0 0 20 20" fill="none" xmlns="http://www.w3.org/2000/svg">
<circle cx="16" cy="10" r="2" fill="#575757"/>
<path d="M11.6459 5.18187C11.1788 4.82759 10.515 4.85808 10.148 5.31527C9.11753 6.59894 8.49987 8.22776 8.49986 10.002C8.49986 11.776 9.11736 13.4046 10.1476 14.6882C10.5147 15.1457 11.179 15.1761 11.6463 14.8215C12.2658 14.3513 12.2684 13.4184 11.8369 12.7714C11.3082 11.9787 10.9999 11.0264 10.9999 10.002C10.9999 8.97741 11.3081 8.02476 11.8369 7.23173C12.2683 6.58473 12.2655 5.65178 11.6459 5.18187Z" fill="#575757"/>
<path d="M7.71331 2.19666C7.20707 1.8126 6.48636 1.87182 6.09817 2.37489C4.46993 4.48501 3.49967 7.12872 3.49967 10.0001C3.49969 12.8713 4.46974 15.5148 6.09775 17.6249C6.48612 18.1282 7.20725 18.1874 7.71364 17.8029C8.30387 17.3549 8.36314 16.4937 7.9254 15.8958C6.71535 14.2429 5.99969 12.2056 5.99967 10.0001C5.99967 7.79447 6.71519 5.75668 7.92533 4.10356C8.36303 3.50565 8.30364 2.64452 7.71331 2.19666Z" fill="#575757"/>
</svg>

<svg xmlns="http://www.w3.org/2000/svg" fill="none" viewBox="0 0 20 20"><circle cx="16" cy="10" r="2" fill="#575757"/><path fill="#575757" d="M11.646 5.182c-.467-.354-1.131-.324-1.498.133A7.46 7.46 0 0 0 8.5 10.002a7.46 7.46 0 0 0 1.648 4.686c.367.458 1.031.488 1.498.133.62-.47.622-1.403.19-2.05A4.97 4.97 0 0 1 11 10.002c0-1.025.308-1.977.837-2.77.431-.647.428-1.58-.191-2.05M7.713 2.197c-.506-.384-1.227-.325-1.615.178A12.44 12.44 0 0 0 3.5 10c0 2.871.97 5.515 2.598 7.625.388.503 1.11.562 1.616.178.59-.448.65-1.31.211-1.907A9.95 9.95 0 0 1 6 10c0-2.206.715-4.243 1.925-5.896.438-.598.379-1.46-.212-1.907"/></svg>
